!!!SOCIAL_FUNCTION:	songs of personal narratives concerning war
!!!PDT:	1918

Specific Region: Dakotas, Minnesota, Montana, Nebraska
!!!REG: Dakotas and Montana
!!!LING_GROUP: Siouan
!!!LANG: Tone
!!!OTL@ENG: I Took Courage
!!!ONM: No. 165
**kern
*Imale
*clefF4
*k[f#]
*M3/4
*MM92
8d
=1
4d
4d
4B
=2
2d
8.B
16d
=3
4d
4d
4B
=4
8B
[8A
8A]
[8G
8.G]
16A
=5
4A
4d
4B
=6
8B
[8A
8A]
[8G
8.G]
16A
=7
4A
8B
8A
4G
=8
2G
8.D
16G
=9
4G
8A
8A
4G
=10
16A
[8.G
4G]
8.D
16D
=11
2.D
=12||
*M2/4
2D
=13
2r
=14||
*M3/4
16D
8.D
4d
4B
=15
2d
8.B
16d
=16
4d
4d
4B
=
(8B
(8A
8A
8A)
[8G
8.G]
16A
=17
4A
4d
4B
=18
(8B
[8A
8A]
[8G)
8G]
8A
=19
4A
(8B
8A)
4G
=20
4G
(8G
[8D
8.D])
16G
=21
4G
8A
8A
4G
=22
16A
[8.G
4G]
8.D
16D
=23
2.D
=24
4D
2r
==
*-
!!!CNT: Native American -- Sioux
!!!MRD: 1911/07//-1914///
!!!OCL: Frances Densmore
!!!YOR1: Teton Sioux Music, Bulletin 61,
!!!YOR2: Bureau of American Ethnology, Smithsonian Institution
!!!PPR: Government Printing Office
!!!PPP: Washington, D.C.
!!!PDT: 1918///
!!!ENC: Craig Stuart Sapp
!!!END: 2002/03/25/
!!!EEV: 2002/03/31/
!!!AGN: War Song/Song of Personal Narrative Concerning War
!!!MPN@@SIO: Wangbli'-waha'chungka
!!!MPN@ENG: Eagle Shield
!!!TXO: Teton Sioux
!!!MLC: Standing Rock Reservation, South Dakota, United States of America
!!!ARL: 45.9/-100.7#
!!!catalog: Catalogue No. 508
!!!PPG: 395
!!!EFL: 170/245
!!!VTS: 2705057158
